src/assets/icons/shapes,simple,filled-octagon.svg

<svg width="48" height="48" viewBox="0 0 48 48" fill="none" xmlns="http://www.w3.org/2000/svg">
<rect opacity="0.2" x="5" y="5" width="38" height="38" rx="4" fill="black"/>
<path d="M22.4693 10.6341C23.2245 10.3212 23.6022 10.1648 24 10.1648C24.3978 10.1648 24.7755 10.3212 25.5307 10.6341L32.3688 13.4665C33.124 13.7793 33.5017 13.9357 33.783 14.217C34.0643 14.4983 34.2207 14.876 34.5335 15.6312L37.3659 22.4693C37.6788 23.2245 37.8352 23.6022 37.8352 24C37.8352 24.3978 37.6788 24.7755 37.3659 25.5307L34.5335 32.3688C34.2207 33.124 34.0643 33.5017 33.783 33.783C33.5017 34.0643 33.124 34.2207 32.3688 34.5335L25.5307 37.3659C24.7755 37.6788 24.3978 37.8352 24 37.8352C23.6022 37.8352 23.2245 37.6788 22.4693 37.3659L15.6312 34.5335C14.876 34.2207 14.4983 34.0643 14.217 33.783C13.9357 33.5017 13.7793 33.124 13.4665 32.3688L10.6341 25.5307C10.3212 24.7755 10.1648 24.3978 10.1648 24C10.1648 23.6022 10.3212 23.2245 10.6341 22.4693L13.4665 15.6312C13.7793 14.876 13.9357 14.4983 14.217 14.217C14.4983 13.9357 14.876 13.7793 15.6312 13.4665L22.4693 10.6341Z" fill="black"/>
</svg>

<svg xmlns="http://www.w3.org/2000/svg" width="48" height="48" fill="none" viewBox="0 0 48 48">
  <rect width="38" height="38" x="5" y="5" fill="#000" opacity=".2" rx="4"/>
  <path fill="#000" d="M22.47 10.634c.755-.313 1.132-.47 1.53-.47.398 0 .776.157 1.53.47l6.839 2.832c.755.313 1.133.47 1.414.751.281.281.438.659.75 1.414l2.833 6.838c.313.755.47 1.133.47 1.531 0 .398-.157.776-.47 1.53l-2.833 6.839c-.312.755-.469 1.133-.75 1.414-.281.281-.659.438-1.414.75l-6.838 2.833c-.755.313-1.133.47-1.531.47-.398 0-.776-.157-1.53-.47l-6.839-2.833c-.755-.312-1.133-.469-1.414-.75-.281-.281-.438-.659-.75-1.414l-2.833-6.838c-.313-.755-.47-1.133-.47-1.531 0-.398.157-.776.47-1.53l2.832-6.839c.313-.755.47-1.133.751-1.414.281-.281.659-.438 1.414-.75l6.838-2.833z"/>
</svg>
